ES4T1/26/aimg/postit.svg

<svg clip-rule="evenodd" fill-rule="evenodd" stroke-linejoin="round" stroke-miterlimit="2" viewBox="0 0 738 845" xmlns="http://www.w3.org/2000/svg" xmlns:xlink="http://www.w3.org/1999/xlink"><linearGradient id="a" gradientTransform="matrix(1 0 0 -1 0 .000455)" gradientUnits="userSpaceOnUse" x1="0" x2="1" y1="0" y2="0"><stop offset="0" stop-color="#4bafda"/><stop offset=".14" stop-color="#4bafda"/><stop offset=".66" stop-color="#85c2e0"/><stop offset="1" stop-color="#85c2e0"/></linearGradient><linearGradient id="b" gradientTransform="matrix(1 0 0 -1 0 .000453)" gradientUnits="userSpaceOnUse" x1="0" x2="1" y1="0" y2="0"><stop offset="0" stop-color="#949699"/><stop offset=".03" stop-color="#949699"/><stop offset=".08" stop-color="#fff"/><stop offset=".14" stop-color="#949699"/><stop offset=".19" stop-color="#d9dbdc"/><stop offset=".25" stop-color="#9d9fa2"/><stop offset=".3" stop-color="#6c6e70"/><stop offset=".47" stop-color="#676d8c"/><stop offset=".69" stop-color="#eeeff3"/><stop offset=".96" stop-color="#695e83"/><stop offset="1" stop-color="#695e83"/></linearGradient><linearGradient id="c" gradientTransform="matrix(1 0 0 -1 0 -.018265)" gradientUnits="userSpaceOnUse" x1="0" x2="1" y1="0" y2="0"><stop offset="0" stop-color="#ccd1d4"/><stop offset=".27" stop-color="#fff"/><stop offset="1" stop-color="#fff"/></linearGradient><linearGradient id="d" gradientTransform="matrix(1 0 0 -1 0 -.001307)" gradientUnits="userSpaceOnUse" x1="0" x2="1" y1="0" y2="0"><stop offset="0" stop-color="#fff"/><stop offset=".25" stop-color="#fff"/><stop offset=".95" stop-color="#b9b2c4"/><stop offset="1" stop-color="#b9b2c4"/></linearGradient><linearGradient id="e" gradientTransform="matrix(1 0 0 -1 0 .003674)" gradientUnits="userSpaceOnUse" x1="0" x2="1" y1="0" y2="0"><stop offset="0" stop-color="#a7a9ac"/><stop offset=".02" stop-color="#a7a9ac"/><stop offset=".98" stop-color="#3c5778"/><stop offset="1" stop-color="#3c5778"/></linearGradient><linearGradient id="f" gradientTransform="matrix(1 0 0 -1 0 .004354)" gradientUnits="userSpaceOnUse" x1="0" x2="1" y1="0" y2="0"><stop offset="0" stop-color="#fff"/><stop offset=".34" stop-color="#fff"/><stop offset="1" stop-color="#d9dbe3"/></linearGradient><linearGradient id="g" gradientTransform="matrix(1 0 0 -1 0 .000796)" gradientUnits="userSpaceOnUse" x1="0" x2="1" y1="0" y2="0"><stop offset="0" stop-color="#857b97"/><stop offset=".03" stop-color="#857b97"/><stop offset=".49" stop-color="#382656"/><stop offset="1" stop-color="#6c6e70"/></linearGradient><g fill-rule="nonzero"><path d="m0-124.404c-4.656.613-7.934 4.885-7.321 9.541l15.888 120.681c.613 4.657 4.884 7.934 9.541 7.321l99.797-13.138c4.656-.613 7.934-4.885 7.321-9.541l-15.888-120.681c-.613-4.657-4.885-7.935-9.541-7.321z" fill="#f0e0ee" transform="matrix(5.55556 0 0 5.55556 41.02961852 771.15640508)"/><path d="m-.018-.006c.017-.006.033-.012.038-.014.002 0 .003-.001.004-.001l.118-.017s.01-.001.028-.004c.017-.002.042-.006.073-.01.06-.009.142-.02.227-.032.168-.024.348-.05.389-.056.027-.004.047.002.063.012s.029.026.037.042c.005.011.008.022.01.031.002.013 0 .032-.007.05s-.019.035-.035.047c-.011.008-.024.013-.04.016-.076.01-.593.084-.593.084-.011.002-.019.012-.018.024.002.011.013.019.024.018 0 0 .517-.074.593-.085.034-.005.061-.021.08-.042.011-.014.02-.028.026-.044l.002-.003c.003-.008.005-.016.007-.024.004-.016.004-.032.002-.047-.003-.021-.012-.044-.027-.065s-.036-.04-.065-.05c-.019-.007-.041-.009-.065-.005-.072.01-.567.081-.689.098-.018.003-.028.004-.028.004l-.12.017c-.001 0-.008.002-.018.005z" fill="url(#a)" transform="matrix(166.145132916 186.65848266 -186.65848266 166.145132916 193.435296 13.50579896)"/><path d="m0 .168v.003c-.001.027.005.059.022.093.011.024.025.042.039.057v-.07c-.001-.001-.002-.003-.003-.005-.012-.025-.017-.046-.017-.064-.001-.019.003-.033.008-.046.011-.025.031-.041.04-.047.001-.001.003-.002.003-.002l.104-.051.088-.043c.054-.025.125-.06.2-.096.148-.072.305-.149.341-.166.024-.012.044-.012.062-.008.018.005.034.015.046.028.008.008.014.018.018.026.006.011.009.029.008.048-.001.018-.007.038-.018.053-.008.01-.018.019-.032.026-.066.032-.52.253-.52.253-.01.005-.014.017-.009.027s.017.014.027.009c0 0 .453-.22.52-.253.03-.014.05-.037.061-.062s.014-.052.011-.075c-.001-.016-.005-.031-.011-.044-.01-.019-.024-.037-.044-.052-.021-.015-.046-.026-.075-.027-.02 0-.041.004-.061.014-.064.031-.498.242-.605.294-.016.008-.024.012-.024.012l-.106.051c-.001.001-.018.01-.035.03-.009.01-.019.023-.026.039-.006.014-.01.03-.012.048z" fill="url(#b)" transform="matrix(104.805083844 236.627411524 -236.627411524 104.805083844 207.9075298 -15.44977976)"/><path d="m5.628-3.6c.003.025.006.051.008.077.014.286-.103.521-.139.586-.009.016-.016.029-.021.036l-.001.002-.002.002-.65.858-.15.198-.4.528-1.244 1.64-2.135 2.816c-.14.184-.307.296-.511.342-.165.037-.354.026-.531-.036-.041-.014-.082-.031-.122-.05.062.042.139.081.225.11.154.053.331.073.499.035.168-.039.33-.129.476-.32.227-.3 1.21-1.595 2.135-2.816.463-.61.911-1.202 1.244-1.64.166-.22.304-.402.4-.528s.15-.198.15-.198l.65-.858c.004-.005.01-.016.019-.033.047-.083.144-.299.131-.554-.003-.063-.012-.129-.031-.197z" fill="url(#c)" transform="matrix(1.47867340516 -27.9346890144 27.9346890144 1.47867340516 271.00202472 171.4170364)"/><path d="m1.797-42.466c-.937 0-1.702.761-1.7 1.7l.005 71.439c-.021 4.496 1.876 7.678 3.468 9.553.733.872 1.505 1.608 2.298 2.239-.378-.365-.729-.744-1.079-1.15-2.169-2.57-3.667-6.019-3.661-10.076 0-9.188.001-71.437.001-71.437-.003-.927.504-1.731 1.248-2.165-.181-.07-.379-.099-.58-.103z" fill="url(#d)" transform="matrix(1.3530844158 -1.60120128096 1.60120128096 1.3530844158 271.04091364 155.05035664)"/><path d="m.784 11.031c.094.055.204.086.322.086.139.001.271-.047.377-.123-.333-.026-.594-.306-.594-.642 0 0 .001-16.11 0-18.489-.002-.494-.116-.906-.305-1.27-.284-.543-.752-.977-1.275-1.27-.519-.293-1.093-.438-1.497-.433-.285 0-.638.05-.992.169-.02.008-.039.011-.059.022.223-.048.435-.072.621-.071.405 0 .977.142 1.496.436.523.292.993.725 1.274 1.267.191.364.305.78.306 1.272.001 2.377-.001 18.486-.001 18.486 0 .158.058.303.153.415.049.058.108.108.174.145z" fill="url(#e)" transform="matrix(-5.228615294 6.1873938388 -6.1873938388 -5.228615294 278.75758648 144.93368188)"/><path d="m-.12-3.124.006.799c1.624 1.571 3.192 3.357 4.667 5.453-1.431-2.332-2.986-4.408-4.673-6.252z" fill="url(#f)" transform="matrix(-.49129483748 -1.10923977628 1.10923977628 -.49129483748 143.9630342 29.97803436)"/><path d="m.025.317c-.001.002-.001.004-.001.006-.002.051.009.11.041.175.021.043.044.077.07.103-.019-.023-.037-.051-.053-.083-.031-.065-.043-.124-.04-.175.003-.077.038-.134.07-.17.033-.037.064-.054.066-.055l.001-.001.198-.096s.016-.008.045-.022c.202-.098 1.018-.494 1.137-.553.04-.019.079-.027.115-.026.055.001.103.022.141.05.012.009.024.019.034.03-.014-.018-.032-.035-.052-.05-.037-.028-.085-.048-.14-.05-.037 0-.076.008-.115.027-.12.058-.935.454-1.137.552-.029.014-.045.022-.045.022l-.198.096-.001.001c-.003.001-.034.019-.066.055-.017.019-.035.044-.048.074-.012.026-.02.056-.022.09z" fill="url(#g)" transform="matrix(55.75837794 125.890656268 -125.890656268 55.75837794 206.76308444 -18.53867112)"/></g></svg>

<?xml version="1.0" encoding="UTF-8" standalone="no"?>
<!DOCTYPE svg PUBLIC "-//W3C//DTD SVG 1.1//EN" "http://www.w3.org/Graphics/SVG/1.1/DTD/svg11.dtd">
<svg width="100%" height="100%" viewBox="0 0 738 845" version="1.1" xmlns="http://www.w3.org/2000/svg" xmlns:xlink="http://www.w3.org/1999/xlink" xml:space="preserve" xmlns:serif="http://www.serif.com/" style="fill-rule:evenodd;clip-rule:evenodd;stroke-linejoin:round;stroke-miterlimit:2;">
    <g transform="matrix(1,0,0,1,-27683.1,-6463.1)">
        <g transform="matrix(5.55556,0,0,5.55556,25423.2,4783.46)">
            <g transform="matrix(1,0,0,1,414.167,441.143)">
                <path d="M0,-124.404C-4.656,-123.791 -7.934,-119.519 -7.321,-114.863L8.567,5.818C9.18,10.475 13.451,13.752 18.108,13.139L117.905,0.001C122.561,-0.612 125.839,-4.884 125.226,-9.54L109.338,-130.221C108.725,-134.878 104.453,-138.156 99.797,-137.542L0,-124.404Z" style="fill:rgb(240,224,238);fill-rule:nonzero;"/>
            </g>
        </g>
        <g transform="matrix(5.55556,0,0,5.55556,25423.2,4783.46)">
            <g transform="matrix(29.9061,33.5985,-33.5985,29.9061,441.6,304.766)">
                <path d="M-0.018,-0.006C-0.001,-0.012 0.015,-0.018 0.02,-0.02C0.022,-0.02 0.023,-0.021 0.024,-0.021L0.142,-0.038C0.142,-0.038 0.152,-0.039 0.17,-0.042C0.187,-0.044 0.212,-0.048 0.243,-0.052C0.303,-0.061 0.385,-0.072 0.47,-0.084C0.638,-0.108 0.818,-0.134 0.859,-0.14C0.886,-0.144 0.906,-0.138 0.922,-0.128C0.938,-0.118 0.951,-0.102 0.959,-0.086C0.964,-0.075 0.967,-0.064 0.969,-0.055C0.971,-0.042 0.969,-0.023 0.962,-0.005C0.955,0.013 0.943,0.03 0.927,0.042C0.916,0.05 0.903,0.055 0.887,0.058C0.811,0.068 0.294,0.142 0.294,0.142C0.283,0.144 0.275,0.154 0.276,0.166C0.278,0.177 0.289,0.185 0.3,0.184C0.3,0.184 0.817,0.11 0.893,0.099C0.927,0.094 0.954,0.078 0.973,0.057C0.984,0.043 0.993,0.029 0.999,0.013L1.001,0.01C1.004,0.002 1.006,-0.006 1.008,-0.014C1.012,-0.03 1.012,-0.046 1.01,-0.061C1.007,-0.082 0.998,-0.105 0.983,-0.126C0.968,-0.147 0.947,-0.166 0.918,-0.176C0.899,-0.183 0.877,-0.185 0.853,-0.181C0.781,-0.171 0.286,-0.1 0.164,-0.083C0.146,-0.08 0.136,-0.079 0.136,-0.079L0.016,-0.062L0.016,-0.062C0.015,-0.062 0.008,-0.06 -0.002,-0.057L-0.018,-0.006Z" style="fill:url(#_Linear1);fill-rule:nonzero;"/>
            </g>
        </g>
        <g transform="matrix(5.55556,0,0,5.55556,25423.2,4783.46)">
            <g transform="matrix(18.8649,42.5929,-42.5929,18.8649,444.205,299.554)">
                <path d="M0,0.168C0,0.169 0,0.17 0,0.171C-0.001,0.198 0.005,0.23 0.022,0.264C0.033,0.288 0.047,0.306 0.061,0.321L0.061,0.251C0.06,0.25 0.059,0.248 0.058,0.246C0.046,0.221 0.041,0.2 0.041,0.182C0.04,0.163 0.044,0.149 0.049,0.136C0.06,0.111 0.08,0.095 0.089,0.089C0.09,0.088 0.092,0.087 0.092,0.087L0.196,0.036L0.284,-0.007C0.338,-0.032 0.409,-0.067 0.484,-0.103C0.632,-0.175 0.789,-0.252 0.825,-0.269C0.849,-0.281 0.869,-0.281 0.887,-0.277C0.905,-0.272 0.921,-0.262 0.933,-0.249C0.941,-0.241 0.947,-0.231 0.951,-0.223C0.957,-0.212 0.96,-0.194 0.959,-0.175C0.958,-0.157 0.952,-0.137 0.941,-0.122C0.933,-0.112 0.923,-0.103 0.909,-0.096C0.843,-0.064 0.389,0.157 0.389,0.157C0.379,0.162 0.375,0.174 0.38,0.184C0.385,0.194 0.397,0.198 0.407,0.193C0.407,0.193 0.86,-0.027 0.927,-0.06C0.957,-0.074 0.977,-0.097 0.988,-0.122C0.999,-0.147 1.002,-0.174 0.999,-0.197C0.998,-0.213 0.994,-0.228 0.988,-0.241C0.978,-0.26 0.964,-0.278 0.944,-0.293C0.923,-0.308 0.898,-0.319 0.869,-0.32C0.849,-0.32 0.828,-0.316 0.808,-0.306C0.744,-0.275 0.31,-0.064 0.203,-0.012C0.187,-0.004 0.179,0 0.179,0L0.073,0.051L0.073,0.051C0.072,0.052 0.055,0.061 0.038,0.081C0.029,0.091 0.019,0.104 0.012,0.12C0.006,0.134 0.002,0.15 0,0.168Z" style="fill:url(#_Linear2);fill-rule:nonzero;"/>
            </g>
        </g>
        <g transform="matrix(5.55556,0,0,5.55556,25423.2,4783.46)">
            <g transform="matrix(0.266161,-5.02824,5.02824,0.266161,455.562,333.19)">
                <path d="M5.628,-3.6C5.631,-3.575 5.634,-3.549 5.636,-3.523C5.65,-3.237 5.533,-3.002 5.497,-2.937C5.488,-2.921 5.481,-2.908 5.476,-2.901L5.475,-2.899L5.473,-2.897L4.823,-2.039L4.673,-1.841L4.273,-1.313L3.029,0.327L0.894,3.143C0.754,3.327 0.587,3.439 0.383,3.485C0.218,3.522 0.029,3.511 -0.148,3.449C-0.189,3.435 -0.23,3.418 -0.27,3.399C-0.208,3.441 -0.131,3.48 -0.045,3.509C0.109,3.562 0.286,3.582 0.454,3.544C0.622,3.505 0.784,3.415 0.93,3.224C1.157,2.924 2.14,1.629 3.065,0.408C3.528,-0.202 3.976,-0.794 4.309,-1.232C4.475,-1.452 4.613,-1.634 4.709,-1.76C4.805,-1.886 4.859,-1.958 4.859,-1.958L5.509,-2.816C5.513,-2.821 5.519,-2.832 5.528,-2.849C5.575,-2.932 5.672,-3.148 5.659,-3.403C5.656,-3.466 5.647,-3.532 5.628,-3.6Z" style="fill:url(#_Linear3);fill-rule:nonzero;"/>
            </g>
        </g>
        <g transform="matrix(5.55556,0,0,5.55556,25423.2,4783.46)">
            <g transform="matrix(0.243555,-0.288216,0.288216,0.243555,455.569,330.244)">
                <path d="M1.797,-42.466C0.86,-42.466 0.095,-41.705 0.097,-40.766L0.102,30.673C0.081,35.169 1.978,38.351 3.57,40.226C4.303,41.098 5.075,41.834 5.868,42.465C5.49,42.1 5.139,41.721 4.789,41.315C2.62,38.745 1.122,35.296 1.128,31.239C1.128,22.051 1.129,-40.198 1.129,-40.198C1.126,-41.125 1.633,-41.929 2.377,-42.363C2.196,-42.433 1.998,-42.462 1.797,-42.466Z" style="fill:url(#_Linear4);fill-rule:nonzero;"/>
            </g>
        </g>
        <g transform="matrix(5.55556,0,0,5.55556,25423.2,4783.46)">
            <g transform="matrix(-0.94115,1.11373,-1.11373,-0.94115,456.958,328.423)">
                <path d="M0.784,11.031C0.878,11.086 0.988,11.117 1.106,11.117C1.245,11.118 1.377,11.07 1.483,10.994C1.15,10.968 0.889,10.688 0.889,10.352C0.889,10.352 0.89,-5.758 0.889,-8.137C0.887,-8.631 0.773,-9.043 0.584,-9.407C0.3,-9.95 -0.168,-10.384 -0.691,-10.677C-1.21,-10.97 -1.784,-11.115 -2.188,-11.11C-2.473,-11.11 -2.826,-11.06 -3.18,-10.941C-3.2,-10.933 -3.219,-10.93 -3.239,-10.919C-3.016,-10.967 -2.804,-10.991 -2.618,-10.99C-2.213,-10.99 -1.641,-10.848 -1.122,-10.554C-0.599,-10.262 -0.129,-9.829 0.152,-9.287C0.343,-8.923 0.457,-8.507 0.458,-8.015C0.459,-5.638 0.457,10.471 0.457,10.471C0.457,10.629 0.515,10.774 0.61,10.886C0.659,10.944 0.718,10.994 0.784,11.031Z" style="fill:url(#_Linear5);fill-rule:nonzero;"/>
            </g>
        </g>
        <g transform="matrix(5.55556,0,0,5.55556,25423.2,4783.46)">
            <g transform="matrix(-0.088433,-0.199663,0.199663,-0.088433,432.695,307.731)">
                <path d="M-0.12,-3.124L-0.114,-2.325C1.51,-0.754 3.078,1.032 4.553,3.128C3.122,0.796 1.567,-1.28 -0.12,-3.124Z" style="fill:url(#_Linear6);fill-rule:nonzero;"/>
            </g>
        </g>
        <g transform="matrix(5.55556,0,0,5.55556,25423.2,4783.46)">
            <g transform="matrix(10.0365,22.6603,-22.6603,10.0365,443.999,298.998)">
                <path d="M0.025,0.317C0.024,0.319 0.024,0.321 0.024,0.323C0.022,0.374 0.033,0.433 0.065,0.498C0.086,0.541 0.109,0.575 0.135,0.601C0.116,0.578 0.098,0.55 0.082,0.518C0.051,0.453 0.039,0.394 0.042,0.343C0.045,0.266 0.08,0.209 0.112,0.173C0.145,0.136 0.176,0.119 0.178,0.118L0.179,0.117L0.377,0.021C0.377,0.021 0.393,0.013 0.422,-0.001C0.624,-0.099 1.44,-0.495 1.559,-0.554C1.599,-0.573 1.638,-0.581 1.674,-0.58C1.729,-0.579 1.777,-0.558 1.815,-0.53C1.827,-0.521 1.839,-0.511 1.849,-0.5C1.835,-0.518 1.817,-0.535 1.797,-0.55C1.76,-0.578 1.712,-0.598 1.657,-0.6C1.62,-0.6 1.581,-0.592 1.542,-0.573C1.422,-0.515 0.607,-0.119 0.405,-0.021C0.376,-0.007 0.36,0.001 0.36,0.001L0.162,0.097L0.161,0.098C0.158,0.099 0.127,0.117 0.095,0.153C0.078,0.172 0.06,0.197 0.047,0.227C0.035,0.253 0.027,0.283 0.025,0.317Z" style="fill:url(#_Linear7);fill-rule:nonzero;"/>
            </g>
        </g>
    </g>
    <defs>
        <linearGradient id="_Linear1" x1="0" y1="0" x2="1" y2="0" gradientUnits="userSpaceOnUse" gradientTransform="matrix(1,0,0,-1,0,0.000455013)"><stop offset="0" style="stop-color:rgb(75,175,218);stop-opacity:1"/><stop offset="0.14" style="stop-color:rgb(75,175,218);stop-opacity:1"/><stop offset="0.66" style="stop-color:rgb(133,194,224);stop-opacity:1"/><stop offset="1" style="stop-color:rgb(133,194,224);stop-opacity:1"/></linearGradient>
        <linearGradient id="_Linear2" x1="0" y1="0" x2="1" y2="0" gradientUnits="userSpaceOnUse" gradientTransform="matrix(1,-5.55112e-17,-5.55112e-17,-1,0,0.000452647)"><stop offset="0" style="stop-color:rgb(148,150,153);stop-opacity:1"/><stop offset="0.03" style="stop-color:rgb(148,150,153);stop-opacity:1"/><stop offset="0.08" style="stop-color:white;stop-opacity:1"/><stop offset="0.14" style="stop-color:rgb(148,150,153);stop-opacity:1"/><stop offset="0.19" style="stop-color:rgb(217,219,220);stop-opacity:1"/><stop offset="0.25" style="stop-color:rgb(157,159,162);stop-opacity:1"/><stop offset="0.3" style="stop-color:rgb(108,110,112);stop-opacity:1"/><stop offset="0.47" style="stop-color:rgb(103,109,140);stop-opacity:1"/><stop offset="0.69" style="stop-color:rgb(238,239,243);stop-opacity:1"/><stop offset="0.96" style="stop-color:rgb(105,94,131);stop-opacity:1"/><stop offset="1" style="stop-color:rgb(105,94,131);stop-opacity:1"/></linearGradient>
        <linearGradient id="_Linear3" x1="0" y1="0" x2="1" y2="0" gradientUnits="userSpaceOnUse" gradientTransform="matrix(1,0,0,-1,0,-0.018265)"><stop offset="0" style="stop-color:rgb(204,209,212);stop-opacity:1"/><stop offset="0.27" style="stop-color:white;stop-opacity:1"/><stop offset="1" style="stop-color:white;stop-opacity:1"/></linearGradient>
        <linearGradient id="_Linear4" x1="0" y1="0" x2="1" y2="0" gradientUnits="userSpaceOnUse" gradientTransform="matrix(1,-5.55112e-17,-5.55112e-17,-1,0,-0.00130651)"><stop offset="0" style="stop-color:white;stop-opacity:1"/><stop offset="0.25" style="stop-color:white;stop-opacity:1"/><stop offset="0.95" style="stop-color:rgb(185,178,196);stop-opacity:1"/><stop offset="1" style="stop-color:rgb(185,178,196);stop-opacity:1"/></linearGradient>
        <linearGradient id="_Linear5" x1="0" y1="0" x2="1" y2="0" gradientUnits="userSpaceOnUse" gradientTransform="matrix(1,5.55112e-17,5.55112e-17,-1,0,0.00367389)"><stop offset="0" style="stop-color:rgb(167,169,172);stop-opacity:1"/><stop offset="0.02" style="stop-color:rgb(167,169,172);stop-opacity:1"/><stop offset="0.98" style="stop-color:rgb(60,87,120);stop-opacity:1"/><stop offset="1" style="stop-color:rgb(60,87,120);stop-opacity:1"/></linearGradient>
        <linearGradient id="_Linear6" x1="0" y1="0" x2="1" y2="0" gradientUnits="userSpaceOnUse" gradientTransform="matrix(1,0,0,-1,0,0.0043536)"><stop offset="0" style="stop-color:white;stop-opacity:1"/><stop offset="0.34" style="stop-color:white;stop-opacity:1"/><stop offset="1" style="stop-color:rgb(217,219,227);stop-opacity:1"/></linearGradient>
        <linearGradient id="_Linear7" x1="0" y1="0" x2="1" y2="0" gradientUnits="userSpaceOnUse" gradientTransform="matrix(1,-5.55112e-17,-5.55112e-17,-1,0,0.000796127)"><stop offset="0" style="stop-color:rgb(133,123,151);stop-opacity:1"/><stop offset="0.03" style="stop-color:rgb(133,123,151);stop-opacity:1"/><stop offset="0.49" style="stop-color:rgb(56,38,86);stop-opacity:1"/><stop offset="1" style="stop-color:rgb(108,110,112);stop-opacity:1"/></linearGradient>
    </defs>
</svg>
